symbolic/status/battery-level-50-symbolic.svg

<svg width="16" height="16" enable-background="new" version="1.1" xmlns="http://www.w3.org/2000/svg">
 <title>Paper Symbolic Icon Theme</title>
 <path d="m5 5v8h6v-8z" fill="#5d656b" opacity=".35"/>
 <path d="m6 1v1h4v-1zm-2.156 2c-0.281 0.047-0.844 0.25-0.844 1v10c0 1 1 1 1 1h8c1 0 1-1 1-1v-10s0-1-1-1h-8s-0.063-0.016-0.156 0zm0.156 1h8v10h-8zm1 5v4h6v-4z" fill="#5d656b"/>
</svg>

<svg width="16" height="16" xmlns="http://www.w3.org/2000/svg"><path d="M5 5v8h6V5z" fill="#5d656b" opacity=".35"/><path d="M6 1v1h4V1zM3.844 3C3.563 3.047 3 3.25 3 4v10c0 1 1 1 1 1h8c1 0 1-1 1-1V4s0-1-1-1H4s-.063-.016-.156 0zM4 4h8v10H4zm1 5v4h6V9z" fill="#5d656b"/></svg>
